gama.ui.shared/icons_svg/light/navigator/status.info.svg

<?xml version="1.0" encoding="UTF-8" standalone="no"?>
<!DOCTYPE svg PUBLIC "-//W3C//DTD SVG 1.1//EN" "http://www.w3.org/Graphics/SVG/1.1/DTD/svg11.dtd">
<svg xmlns="http://www.w3.org/2000/svg" xmlns:dc="http://purl.org/dc/elements/1.1/" version="1.1" xmlns:xl="http://www.w3.org/1999/xlink" viewBox="-94.872 -3555.2937 24.75 24.75" width="24.75" height="24.75">
  <defs/>
  <g id="SOURCES" stroke-dasharray="none" stroke-opacity="1" stroke="none" fill="none" fill-opacity="1">
    <title>SOURCES</title>
    <g id="SOURCES_Light">
      <title>Light</title>
      <g id="Group_9935">
        <g id="Graphic_9934">
          <circle cx="-82.497" cy="-3542.9187" r="8.0000070208016" fill="white"/>
          <circle cx="-82.497" cy="-3542.9187" r="8.0000070208016" stroke="black" stroke-linecap="round" stroke-linejoin="round" stroke-width="0"/>
        </g>
        <g id="Group_9932">
          <title>info-circle</title>
          <g id="Graphic_9933">
            <path d="M -81.697 -3539.7187 L -80.497 -3539.7187 C -80.273 -3539.7187 -80.097 -3539.5427 -80.097 -3539.3187 C -80.097 -3539.0947 -80.273 -3538.9187 -80.497 -3538.9187 L -83.697 -3538.9187 C -83.921 -3538.9187 -84.097 -3539.0947 -84.097 -3539.3187 C -84.097 -3539.5427 -83.921 -3539.7187 -83.697 -3539.7187 L -82.497 -3539.7187 L -82.497 -3543.7187 L -83.697 -3543.7187 C -83.921 -3543.7187 -84.097 -3543.8947 -84.097 -3544.1187 C -84.097 -3544.3427 -83.921 -3544.5187 -83.697 -3544.5187 L -82.097 -3544.5187 C -81.873 -3544.5187 -81.697 -3544.3427 -81.697 -3544.1187 Z M -82.497 -3534.9187 C -86.913 -3534.9187 -90.497 -3538.5027 -90.497 -3542.9187 C -90.497 -3547.3347 -86.913 -3550.9187 -82.497 -3550.9187 C -78.081 -3550.9187 -74.497 -3547.3347 -74.497 -3542.9187 C -74.497 -3538.5027 -78.081 -3534.9187 -82.497 -3534.9187 Z M -82.497 -3535.7187 C -78.521 -3535.7187 -75.297 -3538.9427 -75.297 -3542.9187 C -75.297 -3546.8947 -78.521 -3550.1187 -82.497 -3550.1187 C -86.473 -3550.1187 -89.697 -3546.8947 -89.697 -3542.9187 C -89.697 -3538.9427 -86.473 -3535.7187 -82.497 -3535.7187 Z M -82.897 -3546.9187 L -82.097 -3546.9187 C -81.873 -3546.9187 -81.697 -3546.7427 -81.697 -3546.5187 L -81.697 -3545.7187 C -81.697 -3545.4947 -81.873 -3545.3187 -82.097 -3545.3187 L -82.897 -3545.3187 C -83.121 -3545.3187 -83.297 -3545.4947 -83.297 -3545.7187 L -83.297 -3546.5187 C -83.297 -3546.7427 -83.121 -3546.9187 -82.897 -3546.9187 Z" fill="#5c76a1"/>
          </g>
        </g>
      </g>
      <g id="Graphic_12451"/>
    </g>
  </g>
</svg>

<svg height="24.75" viewBox="-94.872 -3555.294 24.75 24.75" width="24.75" xmlns="http://www.w3.org/2000/svg"><g fill="none"><circle cx="-82.497" cy="-3542.919" fill="#fff" r="8"/><circle cx="-82.497" cy="-3542.919" r="8"/><path d="m-81.697-3539.7187h1.2c.224 0 .4.176.4.4s-.176.4-.4.4h-3.2c-.224 0-.4-.176-.4-.4s.176-.4.4-.4h1.2v-4h-1.2c-.224 0-.4-.176-.4-.4s.176-.4.4-.4h1.6c.224 0 .4.176.4.4zm-.8 4.8c-4.416 0-8-3.584-8-8s3.584-8 8-8 8 3.584 8 8-3.584 8-8 8zm0-.8c3.976 0 7.2-3.224 7.2-7.2s-3.224-7.2-7.2-7.2-7.2 3.224-7.2 7.2 3.224 7.2 7.2 7.2zm-.4-11.2h.8c.224 0 .4.176.4.4v.8c0 .224-.176.4-.4.4h-.8c-.224 0-.4-.176-.4-.4v-.8c0-.224.176-.4.4-.4z" fill="#5c76a1"/></g></svg>
